www/assets/icons/devices_fold.svg

<svg width="24" height="24" viewBox="0 0 24 24" xmlns="http://www.w3.org/2000/svg" fill='currentColor'><path d="M20 4.00052H17C17 2.57052 15.53 1.60052 14.21 2.16052L11.21 3.45052C10.48 3.76052 10 4.49052 10 5.29052V20.0005C10 21.1005 10.9 22.0005 12 22.0005H20C21.1 22.0005 22 21.1005 22 20.0005V6.00052C22 4.90052 21.1 4.00052 20 4.00052ZM20 20.0005H14.67L15.79 19.5205C16.52 19.2005 17 18.4805 17 17.6805V6.00052H20V20.0005Z"/><path d="M4 4.00052H2V6.00052H4V4.00052Z"/><path d="M4 20.0005H2V22.0005H4V20.0005Z"/><path d="M4 16.0005H2V18.0005H4V16.0005Z"/><path d="M4 12.0005H2V14.0005H4V12.0005Z"/><path d="M4 8.00052H2V10.0005H4V8.00052Z"/><path d="M8 4.00052H6V6.00052H8V4.00052Z"/><path d="M8 20.0005H6V22.0005H8V20.0005Z"/></svg>

<svg xmlns="http://www.w3.org/2000/svg" width="24" height="24" viewBox="0 0 24 24" fill='currentColor'><path d="M20 4h-3c0-1.43-1.47-2.4-2.79-1.84l-3 1.29C10.48 3.76 10 4.49 10 5.29V20c0 1.1.9 2 2 2h8c1.1 0 2-.9 2-2V6c0-1.1-.9-2-2-2m0 16h-5.33l1.12-.48c.73-.32 1.21-1.04 1.21-1.84V6h3zM4 4H2v2h2zm0 16H2v2h2zm0-4H2v2h2zm0-4H2v2h2zm0-4H2v2h2zm4-4H6v2h2zm0 16H6v2h2z"/></svg>
